src/pos-icons/air-conditioner.svg

<svg height="24" viewBox="0 0 24 24" width="24" xmlns="http://www.w3.org/2000/svg"><path d="m6.59.66c2.34-1.81 4.88.4 5.45 3.84.43 0 .85.12 1.23.34.52-.6.98-1.42.8-2.34-.42-2.15 1.99-3.89 4.28-.92 1.81 2.34-.4 4.88-3.85 5.45 0 .43-.11.86-.34 1.24.6.51 1.42.97 2.34.79 2.13-.42 3.88 1.98.91 4.28-2.34 1.81-4.88-.4-5.45-3.84-.43 0-.85-.13-1.22-.35-.52.6-.99 1.43-.81 2.35.42 2.14-1.99 3.89-4.28.92-1.82-2.35.4-4.89 3.85-5.45 0-.43.13-.85.35-1.23-.6-.51-1.42-.98-2.35-.8-2.13.42-3.88-1.98-.91-4.28m-1.59 15.34h2a2 2 0 0 1 2 2v6h-2v-2h-2v2h-2v-6a2 2 0 0 1 2-2m0 2v2h2v-2zm7.93-2h2.07l-2.93 8h-2.07zm5.07 0h3v2h-3v4h3v2h-3a2 2 0 0 1 -2-2v-4a2 2 0 0 1 2-2z"/></svg>

<?xml version="1.0" encoding="UTF-8"?><!DOCTYPE svg PUBLIC "-//W3C//DTD SVG 1.1//EN" "http://www.w3.org/Graphics/SVG/1.1/DTD/svg11.dtd"><svg xmlns="http://www.w3.org/2000/svg" xmlns:xlink="http://www.w3.org/1999/xlink" version="1.1" id="mdi-air-conditioner" width="24" height="24" viewBox="0 0 24 24"><path d="M6.59,0.66C8.93,-1.15 11.47,1.06 12.04,4.5C12.47,4.5 12.89,4.62 13.27,4.84C13.79,4.24 14.25,3.42 14.07,2.5C13.65,0.35 16.06,-1.39 18.35,1.58C20.16,3.92 17.95,6.46 14.5,7.03C14.5,7.46 14.39,7.89 14.16,8.27C14.76,8.78 15.58,9.24 16.5,9.06C18.63,8.64 20.38,11.04 17.41,13.34C15.07,15.15 12.53,12.94 11.96,9.5C11.53,9.5 11.11,9.37 10.74,9.15C10.22,9.75 9.75,10.58 9.93,11.5C10.35,13.64 7.94,15.39 5.65,12.42C3.83,10.07 6.05,7.53 9.5,6.97C9.5,6.54 9.63,6.12 9.85,5.74C9.25,5.23 8.43,4.76 7.5,4.94C5.37,5.36 3.62,2.96 6.59,0.66M5,16H7A2,2 0 0,1 9,18V24H7V22H5V24H3V18A2,2 0 0,1 5,16M5,18V20H7V18H5M12.93,16H15L12.07,24H10L12.93,16M18,16H21V18H18V22H21V24H18A2,2 0 0,1 16,22V18A2,2 0 0,1 18,16Z" /></svg>
